X: 123
M: 6/8
L: 1/8
K: G
| G2G GAB | A2A ABc | d2B c2A | B2G AFE |
| G2G GAB | A2A ABc | dBG cAF | G3 G2 :|
|: d \
| g2g gag | f2f fgf | e2d efg | a2g fed |
|1 g2g gag | f2f fgf | efg fga | g3 g2 |
:|2 g3 Bcd | e3 ABc | dcB AGF | G3 G2 |]


